static/images/logos/ratedpeople.svg

<svg clip-rule="evenodd" fill-rule="evenodd" stroke-linejoin="round" stroke-miterlimit="2" viewBox="0 0 24 26" xmlns="http://www.w3.org/2000/svg"><path d="m20.938 17.413 3.27 4.839c.847 1.253.536 2.974-.693 3.839-.447.314-.97.483-1.509.488h-18.969c-1.544 0-2.759-1.214-2.759-2.761v-21.046c0-1.522 1.214-2.761 2.709-2.761h12.212c5.232 0 9.487 4.34 9.487 9.674 0 3.291-1.324 6.018-3.748 7.728zm-17.951-14.93c-.155 0-.282.129-.282.289v21.046c0 .165.133.289.332.289h18.945c.055-.001.107-.018.154-.051.062-.043.104-.109.117-.186.014-.076-.002-.153-.045-.217l-3.581-5.297c-.237-.35-.361-.703-.374-1.072-.022-.654.336-1.298.914-1.648 2.185-1.326 3.091-3.442 3.091-5.951 0-3.972-3.167-7.202-7.059-7.202zm5.217 5.84c0-.421.335-.763.748-.763h3.571c2.21 0 3.57.968 3.57 2.868v.069c0 1.762-1.292 2.868-3.537 2.868h-2.137l-2.214 2.249-.001-2.249z" fill="#fff" transform="translate(-.277793 -.010792)"/></svg>

<svg width="100%" height="100%" viewBox="0 0 24 26" version="1.1" xmlns="http://www.w3.org/2000/svg" xmlns:xlink="http://www.w3.org/1999/xlink" xml:space="preserve" xmlns:serif="http://www.serif.com/" style="fill-rule:evenodd;clip-rule:evenodd;stroke-linejoin:round;stroke-miterlimit:2;">
    <g transform="matrix(1,0,0,1,-0.277793,-0.0107918)">
        <path id="Fill-1" d="M20.938,17.413L24.208,22.252C25.055,23.505 24.744,25.226 23.515,26.091C23.068,26.405 22.545,26.574 22.006,26.579L3.037,26.579C1.493,26.579 0.278,25.365 0.278,23.818L0.278,2.772C0.278,1.25 1.492,0.011 2.987,0.011L15.199,0.011C20.431,0.011 24.686,4.351 24.686,9.685C24.686,12.976 23.362,15.703 20.938,17.413ZM2.987,2.483C2.832,2.483 2.705,2.612 2.705,2.772L2.705,23.818C2.705,23.983 2.838,24.107 3.037,24.107L21.982,24.107C22.037,24.106 22.089,24.089 22.136,24.056C22.198,24.013 22.24,23.947 22.253,23.87C22.267,23.794 22.251,23.717 22.208,23.653L18.627,18.356C18.39,18.006 18.266,17.653 18.253,17.284C18.231,16.63 18.589,15.986 19.167,15.636C21.352,14.31 22.258,12.194 22.258,9.685C22.258,5.713 19.091,2.483 15.199,2.483L2.987,2.483ZM8.204,8.323C8.204,7.902 8.539,7.56 8.952,7.56L12.523,7.56C14.733,7.56 16.093,8.528 16.093,10.428L16.093,10.497C16.093,12.259 14.801,13.365 12.556,13.365L10.419,13.365L8.205,15.614L8.204,13.365L8.204,8.323Z" style="fill:rgb(255,255,255);"/>
    </g>
</svg>
